src/images/circuits/spanish.svg

<svg width="40" height="14" viewBox="0 0 40 14" fill="none" xmlns="http://www.w3.org/2000/svg">
<path d="M6.52478 12.5324H33.9396C34.132 12.532 34.8244 12.5118 36.0557 12.4349C37.5948 12.3387 38.7491 11.5691 38.9415 10.4148C39.1339 9.26051 38.8453 7.14427 38.172 7.14427C37.4986 7.14427 37.8834 6.27854 37.9796 4.93184C38.0758 3.58515 37.691 3.48895 35.4786 2.52703C33.2661 1.5651 32.4004 1.75749 31.727 3.48895C31.0537 5.22042 34.8052 5.79758 35.3824 7.04808C35.9595 8.29858 35.3824 9.16432 34.5166 9.26051C33.6509 9.3567 26.9174 5.12423 24.224 3.20038C21.5306 1.27652 19.703 2.14226 18.9334 3.00799C18.1639 3.87372 16.3362 6.18235 16.1438 7.81762C15.9515 9.45289 15.4705 10.03 12.9695 10.2224C10.4685 10.4148 9.41037 8.97193 7.10175 7.81762C4.79312 6.66331 5.56266 5.89377 6.3322 5.41281C7.10175 4.93184 8.9294 5.31661 11.238 5.509C13.5466 5.70138 14.22 3.68187 13.8352 2.04659C13.4505 0.411321 10.3726 1.18094 6.14017 1.18094C1.9077 1.18094 0.753194 4.54934 1.04177 6.18461C1.33035 7.81989 4.31236 8.58814 5.37048 9.83864C6.4286 11.0891 5.0819 12.5324 6.52478 12.5324Z" stroke="#FF0000"/>
</svg>

<svg width="40" height="14" fill="none" xmlns="http://www.w3.org/2000/svg"><path d="M6.525 12.532H33.94c.192 0 .884-.02 2.116-.097 1.539-.096 2.693-.866 2.886-2.02.192-1.154-.097-3.27-.77-3.27s-.289-.866-.192-2.213c.096-1.347-.289-1.443-2.501-2.405-2.213-.962-3.079-.77-3.752.962-.673 1.731 3.078 2.309 3.655 3.56.578 1.25 0 2.115-.865 2.212-.866.096-7.6-4.137-10.293-6.06-2.693-1.924-4.521-1.059-5.29-.193-.77.866-2.598 3.174-2.79 4.81-.192 1.635-.673 2.212-3.174 2.404-2.502.193-3.56-1.25-5.868-2.404-2.309-1.155-1.54-1.924-.77-2.405.77-.481 2.597-.096 4.906.096 2.309.192 2.982-1.827 2.597-3.462C13.45.41 10.373 1.18 6.14 1.18c-4.232 0-5.387 3.368-5.098 5.004.288 1.635 3.27 2.403 4.328 3.654 1.059 1.25-.288 2.693 1.155 2.693Z" stroke="red"/></svg>
